X: 1
T: Starigradovo lesnoto
C: John Chambers 1976/4
R: lesnoto
N: Written and played for a party (anniversary?) at Serbian restaurant in Milwaukee
N: One of the people present made up Serbian lyrics on the spot, but I didn't get them written down.
M: 7/8
L: 1/8
K: D
|:\
"D"F2D FG AB | A2G F2EF |\
"G"G2B "A7"AB AG |1 "D"F2D FG AG :|2 "D"F7 :|
||\
"D"[F3D3] [F2D2] [G2E2] | [A7F7] |\
"G" [B3G3] [B2G2] [B2G2] | "A7"[A2F2][GE] "D"[F2D2] "A7"[E2A,2] |\
"D"[F3D3] [F2D2] [G2E2] | [A7F7] |\
"G"[B3G3] [B2G2] [d2B2] | "A7"[c7A7] ||
|:\
"G"[B3G3] [B2G2] [d2B2] | "A7"[c2A2][BG] [A2F2][G2E2] |\
"G"[G3E3] [G2E2] [B2G2] | "D"[A2F2][GE] [F4D4] |\
"G"[G3D3-] [G2D2-] [B2D2-] | "A7"[A3D3-] [GEC4][AF] [GEA,][FD] |\
"D"[F7-D7-] | [F7D7] :|

%%sep 1 1 500

